assets/svg/1F611.svg

<svg xmlns="http://www.w3.org/2000/svg" viewBox="0 0 64 64" enable-background="new 0 0 64 64"><circle fill="#fbb041" cx="31.812" cy="31.814" r="31.812"/><g opacity=".987"><path fill="#e79d3c" d="m15.14 41.04c-5.639-12.09-5.89-25.11-.794-35.878-8.637 5.688-14.346 15.461-14.346 26.577 0 17.571 14.24 31.813 31.812 31.813.314 0 .619-.04.929-.048-7.29-6.138-13.436-13.524-17.601-22.464"/></g><g fill="#633c17"><path d="m44.909 48.47c0 1.169-1.674 2.117-3.743 2.117h-18.709c-2.069 0-3.743-.948-3.743-2.117l0 0c0-1.17 1.674-2.12 3.743-2.12h18.709c2.069 0 3.743.95 3.743 2.12l0 0"/><path d="m25.541 27.29c0 1.169-1.171 2.12-2.621 2.12h-13.1c-1.448 0-2.621-.951-2.621-2.12l0 0c0-1.169 1.173-2.118 2.621-2.118h13.1c1.45 0 2.621.949 2.621 2.118l0 0"/><path d="m55.778 27.29c0 1.169-1.171 2.12-2.621 2.12h-13.1c-1.448 0-2.621-.951-2.621-2.12l0 0c0-1.169 1.173-2.118 2.621-2.118h13.1c1.449 0 2.62.949 2.62 2.118l0 0"/></g></svg>

<?xml version="1.0" encoding="UTF-8" standalone="no"?>
<!-- Generator: Adobe Illustrator 16.0.0, SVG Export Plug-In . SVG Version: 6.00 Build 0)  -->

<svg
   xmlns:dc="http://purl.org/dc/elements/1.1/"
   xmlns:cc="http://creativecommons.org/ns#"
   xmlns:rdf="http://www.w3.org/1999/02/22-rdf-syntax-ns#"
   xmlns:svg="http://www.w3.org/2000/svg"
   xmlns="http://www.w3.org/2000/svg"
   xmlns:sodipodi="http://sodipodi.sourceforge.net/DTD/sodipodi-0.dtd"
   xmlns:inkscape="http://www.inkscape.org/namespaces/inkscape"
   version="1.1"
   id="Layer_1"
   x="0px"
   y="0px"
   width="64px"
   height="64px"
   viewBox="0 0 64 64"
   enable-background="new 0 0 64 64"
   xml:space="preserve"
   inkscape:version="0.48.5 r10040"
   sodipodi:docname="1F611.svg"
   inkscape:export-filename="D:\TESTINGEMOJI\SVGTEST\1F611.png"
   inkscape:export-xdpi="90"
   inkscape:export-ydpi="90"><metadata
   id="metadata4366"><rdf:RDF><cc:Work
       rdf:about=""><dc:format>image/svg+xml</dc:format><dc:type
         rdf:resource="http://purl.org/dc/dcmitype/StillImage" /><dc:title></dc:title></cc:Work></rdf:RDF></metadata><defs
   id="defs4364" /><sodipodi:namedview
   pagecolor="#ffffff"
   bordercolor="#666666"
   borderopacity="1"
   objecttolerance="10"
   gridtolerance="10"
   guidetolerance="10"
   inkscape:pageopacity="0"
   inkscape:pageshadow="2"
   inkscape:window-width="640"
   inkscape:window-height="480"
   id="namedview4362"
   showgrid="false"
   inkscape:zoom="3.6875"
   inkscape:cx="32"
   inkscape:cy="32"
   inkscape:window-x="809"
   inkscape:window-y="364"
   inkscape:window-maximized="0"
   inkscape:current-layer="Layer_1" />
<g
   id="g4340">
	<g
   id="g4342">
		<g
   id="g4344">
			<circle
   fill="#FBB041"
   cx="31.812"
   cy="31.814"
   r="31.812"
   id="circle4346" />
		</g>
	</g>
	<g
   opacity="0.9866"
   id="g4348">
		<g
   id="g4350">
			<g
   id="g4352">
				<path
   fill="#E79D3C"
   d="M15.14,41.037C9.501,28.942,9.25,15.924,14.346,5.159C5.709,10.847,0,20.62,0,31.736      c0,17.571,14.24,31.813,31.812,31.813c0.314,0,0.619-0.04,0.929-0.048C25.451,57.363,19.305,49.977,15.14,41.037z"
   id="path4354" />
			</g>
		</g>
	</g>
	<path
   fill="#633C17"
   d="M44.909,48.472c0,1.169-1.674,2.117-3.743,2.117H22.457c-2.069,0-3.743-0.948-3.743-2.117l0,0   c0-1.17,1.674-2.12,3.743-2.12h18.709C43.235,46.352,44.909,47.302,44.909,48.472L44.909,48.472z"
   id="path4356" />
	<path
   fill="#633C17"
   d="M25.541,27.286c0,1.169-1.171,2.12-2.621,2.12H9.822c-1.448,0-2.621-0.951-2.621-2.12l0,0   c0-1.169,1.173-2.118,2.621-2.118H22.92C24.37,25.168,25.541,26.117,25.541,27.286L25.541,27.286z"
   id="path4358" />
	<path
   fill="#633C17"
   d="M55.778,27.286c0,1.169-1.171,2.12-2.621,2.12H40.059c-1.448,0-2.621-0.951-2.621-2.12l0,0   c0-1.169,1.173-2.118,2.621-2.118h13.099C54.607,25.168,55.778,26.117,55.778,27.286L55.778,27.286z"
   id="path4360" />
</g>
</svg>
